X: 22
T: Lady Cunningham's Reel
%R: reel
B: "Twenty Four Country Dances for the Year 1780", Thomas Skillern, ed. p.11 #2
F: http://www.vwml.org/browse/browse-collections-dance-tune-books/browse-skillerns1780#
Z: 2014 John Chambers <jc:trillian.mit.edu>
N: Shortened last note in first strain to fix the rhythm.
M: C|
L: 1/8
K: D
f |\
dDDF TE>DEf | gefd TedBe |\
dDDF TE>DEg | fdef d/d/d d :|
|: f |\
afdf a>baf | gefd Te>dBf |\
a>fdf abag | fdef d/d/d d :|
%%begintext align
%%   Cast off two Cu. Cast up again,
%% Lead down the middle up again &
%% Cast off, set corners and turn the
%% other corners the same, lead outsides.
%%endtext

%%sep 1 1 500
%%sep 1 1 500
